Numix/22/status/user-offline.svg

<?xml version="1.0" encoding="UTF-8" standalone="no"?>
<svg
   xmlns:dc="http://purl.org/dc/elements/1.1/"
   xmlns:cc="http://creativecommons.org/ns#"
   xmlns:rdf="http://www.w3.org/1999/02/22-rdf-syntax-ns#"
   xmlns:svg="http://www.w3.org/2000/svg"
   xmlns="http://www.w3.org/2000/svg"
   xmlns:sodipodi="http://sodipodi.sourceforge.net/DTD/sodipodi-0.dtd"
   xmlns:inkscape="http://www.inkscape.org/namespaces/inkscape"
   width="22"
   viewBox="0 0 22 22"
   height="22"
   id="svg2"
   version="1.1"
   inkscape:version="0.91 r"
   sodipodi:docname="user-offline.svg">
  <metadata
     id="metadata18">
    <rdf:RDF>
      <cc:Work
         rdf:about="">
        <dc:format>image/svg+xml</dc:format>
        <dc:type
           rdf:resource="http://purl.org/dc/dcmitype/StillImage" />
        <dc:title />
      </cc:Work>
    </rdf:RDF>
  </metadata>
  <sodipodi:namedview
     pagecolor="#ffffff"
     bordercolor="#666666"
     borderopacity="1"
     objecttolerance="10"
     gridtolerance="10"
     guidetolerance="10"
     inkscape:pageopacity="0"
     inkscape:pageshadow="2"
     inkscape:window-width="1280"
     inkscape:window-height="998"
     id="namedview16"
     showgrid="true"
     inkscape:zoom="37.252131"
     inkscape:cx="6.5573011"
     inkscape:cy="11"
     inkscape:window-x="0"
     inkscape:window-y="0"
     inkscape:window-maximized="1"
     inkscape:current-layer="svg2">
    <inkscape:grid
       type="xygrid"
       id="grid3020" />
  </sodipodi:namedview>
  <defs
     id="defs4" />
  <path
     inkscape:connector-curvature="0"
     style="fill:#ececec;fill-opacity:1;stroke:none"
     d="m 11,3 c -4.418278,0 -8,3.1340067 -8,7 0,3.865993 3.581722,7 8,7 4.418278,0 8,-3.134007 8,-7 C 19,6.1340067 15.418278,3 11,3 z M 8.9375,7 C 9.1552814,6.975802 9.3829163,7.039166 9.53125,7.1875 L 11,8.65625 12.46875,7.1875 c 0.296667,-0.2966674 0.847916,-0.2458342 1.21875,0.125 0.370834,0.3708342 0.421667,0.9220826 0.125,1.21875 L 12.34375,10 13.8125,11.46875 c 0.296667,0.296667 0.245834,0.847916 -0.125,1.21875 -0.370834,0.370834 -0.922083,0.421667 -1.21875,0.125 L 11,11.34375 9.53125,12.8125 C 9.2345826,13.109167 8.6833342,13.058334 8.3125,12.6875 7.9416658,12.316666 7.8908326,11.765417 8.1875,11.46875 L 9.65625,10 8.1875,8.53125 C 7.8908326,8.2345826 7.9416658,7.6833342 8.3125,7.3125 8.4979171,7.1270829 8.7197186,7.0241979 8.9375,7 z"
     id="path2999" />
  <path
     style="fill:#ececec;fill-opacity:1;stroke:none"
     d="M 11.336219,15 17,19 16,13 z"
     id="path3001"
     inkscape:connector-curvature="0"
     sodipodi:nodetypes="cccc" />
</svg>

<svg xmlns="http://www.w3.org/2000/svg" viewBox="0 0 22 22">
 <path d="m 11 3 c -4.418 0 -8 3.134 -8 7 0 3.866 3.582 7 8 7 4.418 0 8 -3.134 8 -7 c 0 -3.866 -3.582 -7 -8 -7 z m -2.063 4 c 0.218 -0.024 0.445 0.039 0.594 0.188 l 1.469 1.469 1.469 -1.469 c 0.297 -0.297 0.848 -0.246 1.219 0.125 0.371 0.371 0.422 0.922 0.125 1.219 l -1.469 1.469 1.469 1.469 c 0.297 0.297 0.246 0.848 -0.125 1.219 -0.371 0.371 -0.922 0.422 -1.219 0.125 l -1.469 -1.469 -1.469 1.469 c -0.297 0.297 -0.848 0.246 -1.219 -0.125 -0.371 -0.371 -0.422 -0.922 -0.125 -1.219 l 1.469 -1.469 -1.469 -1.469 c -0.297 -0.297 -0.246 -0.848 0.125 -1.219 0.185 -0.185 0.407 -0.288 0.625 -0.313 z" style="fill:#ececec;fill-opacity:1;stroke:none"/>
 <path d="m 11.336 15 5.664 4 -1 -6 z" style="fill:#ececec;fill-opacity:1;stroke:none"/>
</svg>
